Shared/Assets.xcassets/random.imageset/random.svg

<svg version="1.1" id="Uploaded to svgrepo.com" xmlns="http://www.w3.org/2000/svg" xmlns:xlink="http://www.w3.org/1999/xlink" x="0px" y="0px"
	 width="32px" height="32px" viewBox="0 0 32 32" style="enable-background:new 0 0 32 32;" xml:space="preserve">
<style type="text/css">
	.puchipuchi_een{fill:#111918;}
</style>
<path class="puchipuchi_een" d="M1,10c0-1.104,0.896-2,2-2h2c2.356,0,4.405,1.394,6.31,3.322l-2.512,3.15
	C7.455,13.041,6.137,12,5,12H3C1.896,12,1,11.104,1,10z M22,10h2.172l-0.586,0.586c-0.781,0.781-0.781,2.047,0,2.828
	s2.047,0.781,2.828,0l4-4c0.781-0.781,0.781-2.047,0-2.828l-4-4c-0.781-0.781-2.047-0.781-2.828,0s-0.781,2.047,0,2.828L24.172,6H22
	c-3.972,0-7.073,3.947-10.072,7.765C9.631,16.688,7.028,20,5,20H3c-1.104,0-2,0.896-2,2s0.896,2,2,2h2
	c3.972,0,7.073-3.947,10.072-7.765C17.369,13.312,19.972,10,22,10z M26.414,18.586c-0.781-0.781-2.047-0.781-2.828,0
	s-0.781,2.047,0,2.828L24.172,22H22c-1.606,0-3.572-2.078-5.461-4.394l-2.581,3.153C16.353,23.614,18.913,26,22,26h2.172
	l-0.586,0.586c-0.781,0.781-0.781,2.047,0,2.828s2.047,0.781,2.828,0l4-4c0.781-0.781,0.781-2.047,0-2.828L26.414,18.586z"/>
</svg>

<svg
    xmlns="http://www.w3.org/2000/svg"
    viewBox="0 0 32 32"
    id="vector">
    <path
        id="path"
        d="M 1 10 C 1 8.896 1.896 8 3 8 L 5 8 C 7.356 8 9.405 9.394 11.31 11.322 L 8.798 14.472 C 7.455 13.041 6.137 12 5 12 L 3 12 C 1.896 12 1 11.104 1 10 Z M 22 10 L 24.172 10 L 23.586 10.586 C 22.805 11.367 22.805 12.633 23.586 13.414 C 24.367 14.195 25.633 14.195 26.414 13.414 L 30.414 9.414 C 31.195 8.633 31.195 7.367 30.414 6.586 L 26.414 2.586 C 25.633 1.805 24.367 1.805 23.586 2.586 C 22.805 3.367 22.805 4.633 23.586 5.414 L 24.172 6 L 22 6 C 18.028 6 14.927 9.947 11.928 13.765 C 9.631 16.688 7.028 20 5 20 L 3 20 C 1.896 20 1 20.896 1 22 C 1 23.104 1.896 24 3 24 L 5 24 C 8.972 24 12.073 20.053 15.072 16.235 C 17.369 13.312 19.972 10 22 10 Z M 26.414 18.586 C 25.633 17.805 24.367 17.805 23.586 18.586 C 22.805 19.367 22.805 20.633 23.586 21.414 L 24.172 22 L 22 22 C 20.394 22 18.428 19.922 16.539 17.606 L 13.958 20.759 C 16.353 23.614 18.913 26 22 26 L 24.172 26 L 23.586 26.586 C 22.805 27.367 22.805 28.633 23.586 29.414 C 24.367 30.195 25.633 30.195 26.414 29.414 L 30.414 25.414 C 31.195 24.633 31.195 23.367 30.414 22.586 L 26.414 18.586 Z"
        fill="#ffffff"
        fill-opacity="0.5"
        stroke-width="1"/>
</svg>
